X:49
T:Rory O.Moore,aka. WHG.048
R:jig
S:W.H.Giles MS,Bampton,Oxfordshire,1839p49
C:Untitled in MS
O:England
H:donated by Mrs W.R.Kettlewell to VWML,Apr 1927.
A:Bampton, Oxfordshire
N:Presumably not part of the previous tune WHG045
N:(God Save the Queen Secondo)…
Z:PJHeadford – VMP 2009
M:6/8
L:1/8
Q:3/8=90
K:G
g|dGG AGG|dGG Gge|dcB BAG|FAA A2e|\
eGG AGG|dGG e2d/c/|Bcd def|gGG G2:|
|:g|gfe ecB|cBA G2G|EFG GAB|Bed d2f|\
gfe eBB|cBA G2F|EFG GAB|Bed d2:|

